X: 3687
T: Billy McCormack's
R: jig
M: 6/8
K: Edorian
EFD E2d|BAF dAF|DED ~F3|AFD EDB,|
EFD E2d|BAF ABc|~d3 BdB|1 AFD EB,D:|2 AFD E2d||
|:efe edB|efg fdB|~d3 dAG|~F3 ABd|
efe edB|BAF ABc|~d3 BdB|1 AFD E2d:|2 AFD EB,D||

